X:1
T:Holy Cross, CM
T:Holy Cross, CM
T:James Clifft Wade, 1865
T:Public Domain Courtesy of the Cyber Hymnal™
C:James Clifft Wade, 1865
Z:Public Domain
Z:Courtesy of the Cyber Hymnal™
%%score ( 1 2 ) ( 3 4 )
L:1/8
Q:1/4=110
M:4/4
K:Bb
V:1 treble 
V:2 treble 
V:3 bass 
V:4 bass 
V:1
 [DF]2 | [Fd]2 [Ec]2 [DB]2 F2 | [FA]3 [EG] [DF]2 [FB]2 | [Fc]3 F [Fc]2 [F^c]2 | [Fd]6 [DF]2 | %5
 [Fd]2 [Ec]2 [DB]2 [DA]2 | [Cc]3 [Cc] [CB]2 [^CG]2 | [DF]2 [DB]2 [Fd]2 [Ec]2 | [DB]6 |] %9
V:2
 x2 | x6 F2 | x8 | x8 | x8 | x8 | x8 | x8 | x6 |] %9
V:3
 [B,,B,]2 | B,2 [F,A,]2 [G,B,]2 [D,B,]2 | [E,B,]3 [G,B,] B,2 [B,D]2 | [A,E]3 [A,E] [A,E]2 [A,E]2 | %4
 [B,D]6 [B,,B,]2 | B,2 [F,A,]2 [G,B,]2 [D,^F,]2 | [E,G,]3 [E,G,] [=E,G,]2 [E,B,]2 | %7
 [F,B,]2 [F,B,]2 [F,B,]2 [F,A,]2 | [B,,B,]6 |] %9
V:4
 x2 | B,2 x6 | x4 B,2 x2 | x8 | x8 | B,2 x6 | x8 | x8 | x6 |] %9

